X: 2
T: Reel Saint-Jean
C: Th\'eodore Duguay
O: Qu\'ebec
R: reel
Z: 2011 John Chambers <jc:trillian.mit.edu>
B: Laurie Hart & Greg Sandell "Danse ce soir!", Mel Bay, p.80 #46
M: C|
L: 1/8
K: Bm
fe \
| "Bm"dB~B2 FBdB | "Bm"fBdf "E7"B2ed | "A"cA~A2 EAcA | eAce "(Fm)"A2fe ||\
| "Bm"dB~B2 FBdB |
"Bm"fBdf "(G)"B2cB | "A"ABc{B}A e2fe | "F#7"dfdc "Bm"B2 :: "A7"zA \
| "D"DCDE DEFG | "D"A2AB AFED |
"G"d2Bd "D"AFDE | "E(m)"FDEF "A7"ECB,A, ||\
| "D"DCDE DEFG | "D"A2AB AFED | "G"d2Bd "D"AFDE | "A7"FDEC "D"D2 :|


